svgs/sharp-regular/italic.svg

<svg xmlns="http://www.w3.org/2000/svg" viewBox="0 0 384 512"><!--! Font Awesome Pro 6.4.0 by @fontawesome - https://fontawesome.com License - https://fontawesome.com/license (Commercial License) Copyright 2023 Fonticons, Inc. --><path d="M128 32h24H360h24V80H360 291.3L144.7 432H232h24v48H232 24 0V432H24 92.7L239.3 80H152 128V32z"/></svg>

<svg xmlns="http://www.w3.org/2000/svg" viewBox="0 0 384 512"><!--! Font Awesome Pro 6.6.0 by @fontawesome - https://fontawesome.com License - https://fontawesome.com/license (Commercial License) Copyright 2024 Fonticons, Inc. --><path d="M128 32l24 0 208 0 24 0 0 48-24 0-68.7 0L144.7 432l87.3 0 24 0 0 48-24 0L24 480 0 480l0-48 24 0 68.7 0L239.3 80 152 80l-24 0 0-48z"/></svg>
